X: 26324
T: Men Of Destiny
R: reel
M: 4/4
K: Eminor
|:ebze azeg|zefg fedB|ebze aze(g|g)fed e2 dB:|
|:EBzE dzEc|zABc BAGF|EBzE dzE(A|A)GFG E4:|

